packages/calcite-ui-icons/icons/sequential-navigation-32.svg

<?xml version="1.0" encoding="UTF-8"?><svg id="icons" xmlns="http://www.w3.org/2000/svg" viewBox="0 0 32 32"><defs><style>.cls-1{fill:none;}</style></defs><path d="M6,4v4H2v20h23v-4h4V4H6ZM24,27H3V9h21v18ZM28,23h-3v-15H7v-3h21v18ZM16.07318,21l3.51276-3.5-3.49835-3.5h1.41406l3.49835,3.5-3.51276,3.5h-1.41406ZM6.00897,17.5l3.50671-3.5h1.41406l-3.50671,3.5,3.48328,3.5h-1.41406l-3.48328-3.5Z"/><rect class="cls-1" x="0" width="32" height="32"/></svg>

<svg xmlns="http://www.w3.org/2000/svg" viewBox="0 0 32 32"><path d="M6 4v4H2v20h23v-4h4V4H6zm18 23H3V9h21v18zm4-4h-3V8H7V5h21v18zm-11.927-2l3.513-3.5-3.498-3.5h1.414L21 17.5 17.487 21h-1.414zM6.01 17.5L9.516 14h1.414l-3.507 3.5 3.483 3.5H9.492L6.01 17.5z"/><path fill="none" d="M0 0h32v32H0z"/></svg>
